X:1
T:Title
%%score { ( 1 3 ) | ( 2 4 ) }
L:1/8
Q:1/4=100
M:6/8
K:Ab
V:1 treble nm="Grand Piano"
V:3 treble 
V:2 bass 
V:4 bass 
V:1
 [Ec]>[DB][CA] [CE]2 [CF] | G2 F .E3 | d>cB =A2 B | [Ec]2 [Fd] .[Ec]3 | e>dc cB[_Gc] | %5
w: Adam~Geibel * * * *|||||
 [Fd]2 F .F3 | E>EE A2 [Ac] |[M:7/8] [Gc]2 [DGB] [CEA]3 z |[M:3/4] [Ec]3 [Fd]3 | c>B =A B3 | %10
w: |||||
 B>c d e2 d | c3 e z d | cc c e2 e |[M:7/8] [Fd][Fd][Fd] F3 z |[M:3/4] E>E E c2 B | [CA]6 |] %16
w: ||||||
V:2
 [A,,A,]>[A,,A,][A,,A,] [A,,A,]2 [A,,A,] | [E,B,D]2 [E,A,D] .[E,G,D]3 | %2
 [E,B,E]>[E,A,E][E,G,E] [E,_G,E]2 [E,=G,E] | [A,,A,]2 [A,,A,] .[A,,A,]3 | %4
 [A,CE]>[A,B,E][A,E] [A,,A,]2 [A,,A,] | [D,A,]2 [D,A,D] .[D,A,D]3 | %6
 [E,A,C]>[E,A,C][E,A,C] [E,CE]2 [E,E] |[M:7/8] [E,E]2 E, A,,3 z |[M:3/4] [A,,A,]3 [A,,A,]3 | %9
 [E,G,E]>[E,G,D] [E,_G,C] [E,=G,E]3 | [E,G,E]>[E,A,E] [E,B,E] [E,CE]2 [E,B,E] | %11
 [A,E]4 z2[K:treble] | [A,E][A,E] [A,E] [A,C_G]2 [A,CG] | %13
[M:7/8][K:bass] [D,A,][D,A,][D,A,] [D,A,D]3 z |[M:3/4] [E,A,C]>[E,A,C] [E,A,C] [E,G,E]2 [E,G,D] | %15
 [A,,A,]6 |] %16
V:3
 x6 | x6 | x6 | x6 | z3 ._G3 | x6 | x6 |[M:7/8] x7 |[M:3/4] x6 | x6 | x6 | x6 | x6 |[M:7/8] x7 | %14
[M:3/4] x6 | x6 |] %16
V:4
 x6 | x6 | x6 | x6 | x6 | x6 | x6 |[M:7/8] x7 |[M:3/4] x6 | x6 | x6 | z2 z C z[K:treble] [G,B,E] | %12
 x6 |[M:7/8][K:bass] x7 |[M:3/4] x6 | x6 |] %16

